X: 7047
T: Chips And Shavings
R: reel
M: 4/4
K: Dmajor
|:(3A/B/c/|dAFD G2FE|D/E/F/G/ AF GEEB|dAFD G2FE|A/B/c/d/ AG FDD:|
|:B|ABAG F2DF|ABAF GEEB|ABAG F2ED|B/c/d AG FDD:|
|:A|dfaf g2fe|dfaf beef/g/|afge fdec|dBAG FDD:|

